X: 37020
T: Sign Of The Spyglass, The
R: reel
M: 4/4
K: Bminor
|:B2B2 B2AB|e2e2 d3e|f2f2 edB2|A4 F3A|B2B2 B2AB|e2e2 d3e|f2f2 edBA|1 B6 FA:|2 B6 f2||
|:a2a2 f2ed|e2e2 d3e|f2f2 edB2|A4 F3A|B2B2 B2AB|e2e2 d3e|f2f2 edBA|1 B6 f2:|2 B8||

